X: 1
T: Brightest & Best  #1  [A]
T: For the dance Star of the East
R: reel
Z: 2012 John Chambers <jc:trillian.mit.edu>
S: handwritten MS from Jean Monroe 2012-5-31
M: C
L: 1/4
K: A
|:\
"A"A2 cB | AG EF | "Em"=G2 GA  |    ED E2 | "A"A2 cB | AG ED | "E"E2 GG    | "A"A4 :|
"A"A2 cd | e2 cA | "D"d2 d/e/f | "A"ec A2 |    A2 cd | e2 cA | "D"d2 c/B/A | "E"B4 ||
"A"A2 cB | AG EF | "Em"=G2 GA  |    ED E2 | "A"A2 cB | AG ED | "E"E2 GG    | "A"A4 |]
